X:1
T:Title
%%score { 1 | ( 2 3 ) }
L:1/8
Q:1/4=100
M:6/8
K:F
V:1 treble nm="Grand Piano"
V:2 bass 
V:3 bass 
V:1
 c2 c d2 d | c2 A c2 A | F3 G3 | A6 | A2 A B2 B | A2 A [Ac]2 [FA] | [EG]3 [FA]3 | [EG]6 | %8
w: Robert~Lowry * * *||||||||
 [GB]2 [GB] [GB]A[CEG] | [CFA]2 [CFA] [CAc]2 [CFA] | [B,FB]3 [Fd]3 | [Fc]6 | %12
w: ||||
 [CFA]2 [CFA] [CAc]2 [CFA] | [DFB]2 [DFB] [Fd]2 [DFB] | [CFA]3 [B,EG]3 | [A,F]6 | %16
w: ||||
 [Fd]2 [Fd] [DB][_Ec][Fd] | [Fc]3 [FA]3 | [Ec]2 [EG] [EG][FA][GB] | A3 c3 | A3 A3 | B3 A3 | %22
w: ||||||
 [=B,FA]2 [B,FG] [B,FG]2 [B,F] | [CEG]6 | A2 A B2 d | c3 A3 | [GB]2 [GB] [EG]2 [Ed] | %27
w: |||||
 [Fc]3 [CFA]3 | [CEc]3 [A,F]3 | [DFB]3 [B,DG]3 | [A,CF]3 [B,CE]3 | [F,A,CF]6 |] %32
w: |||||
V:2
 [F,A,F]2 [F,A,F] [F,B,F]2 [F,B,F] | [F,A,F]2 [F,CF] [F,A,F]2 [F,CF] | [A,C]3 [G,CE]3 | [F,CF]6 | %4
 [F,CF]2 [F,CF] [F,DF]2 [F,DF] | [F,CF]2 [F,CF] [F,C]2 [F,C] | [C,C]3 [F,C]3 | [C,C]6 | %8
 [C,C]2 [C,C] z FC, | F,2 F, F,2 F, | D,3 [B,,B,]3 | [F,A,]6 | F,2 F, F,2 F, | %13
 B,,2 B,, [B,,B,]2 B,, | C,3 C,3 | F,6 | [B,,B,]2 [B,,B,] [B,,B,]2 [B,,B,] | [F,A,]3 [F,C]3 | %18
 [C,C]2 [C,C] [C,C]2 [C,C] | [F,CF]3 [F,A,F]3 | [F,CF]3 [F,CF]3 | [F,DF]3 [F,CF]3 | D,2 D, D,2 D, | %23
 C,6 | [F,CF]2 [F,CF] [F,DF]2 [F,B,F] | [F,A,F]3 [F,CF]3 | [C,C]2 [C,C] [C,C]2 [C,B,] | %27
 [F,A,]3 F,3 | C,3 D,3 | B,,3 B,,3 | C,3 C,3 | F,,6 |] %32
V:3
 x6 | x6 | x6 | x6 | x6 | x6 | x6 | x6 | z3 .[C,C]3 | x6 | x6 | x6 | x6 | x6 | x6 | x6 | x6 | x6 | %18
 x6 | x6 | x6 | x6 | x6 | x6 | x6 | x6 | x6 | x6 | x6 | x6 | x6 | x6 |] %32

